actions/16/view-calendar-wedding-anniversary.svg

<svg xmlns="http://www.w3.org/2000/svg" viewBox="0 0 16 16">
  <defs id="defs3051">
<style type="text/css" id="current-color-scheme">.ColorScheme-Text {color:#fcfcfc;}</style>
  </defs>
 <path style="fill:currentColor;fill-opacity:1;stroke:none" 
       d="m 2,2 v 10 c 0,0 0,2 2,2 2,0 6,0 8,0 2,0 2,-2 2,-2 V 2 H 12 V 4 H 10 V 2 H 6 V 4 H 4 V 2 Z m 1,3 h 10 v 7 c 0,0 0,1 -1,1 -1,0 -7,0 -8,0 C 3,13 3,12 3,12 Z M 7,6.5 C 5.6192881,6.5 4.5,7.6192881 4.5,9 c 0,1.380712 1.1192881,2.5 2.5,2.5 0.3449605,-4.33e-4 0.6860987,-0.07225 1.0019531,-0.210938 C 8.316602,11.427222 8.656356,11.499029 9,11.5 10.380712,11.5 11.5,10.380712 11.5,9 11.5,7.6192881 10.380712,6.5 9,6.5 8.6550395,6.5004326 8.3139013,6.5722511 7.9980469,6.7109375 7.683398,6.5727775 7.343644,6.5009704 7,6.5 Z m 0,1 h 0.00195 C 6.6767006,7.9324959 6.5005633,8.4588516 6.5,9 c 0.00113,0.5413714 0.1779563,1.067749 0.5039062,1.5 -0.0013,2e-6 -0.0026,2e-6 -0.00391,0 C 6.1715729,10.5 5.5,9.8284271 5.5,9 5.5,8.1715729 6.1715729,7.5 7,7.5 Z m 1.9960938,0 c 0.0013,-1.7e-6 0.0026,-1.7e-6 0.00391,0 0.8284271,0 1.5,0.6715729 1.5,1.5 0,0.8284271 -0.6715729,1.5 -1.5,1.5 h -0.00195 C 9.3232994,10.067504 9.4994367,9.5411484 9.5,9 9.4988736,8.4586286 9.3220437,7.932251 8.9960938,7.5 Z M 8,7.8847656 C 8.3174242,8.1686771 8.4992045,8.5741324 8.5,9 8.4992044,9.4258675 8.3174241,9.8313226 8,10.115234 7.6825759,9.8313226 7.5007956,9.4258675 7.5,9 7.5007955,8.5741324 7.6825758,8.1686771 8,7.8847656 Z"
     class="ColorScheme-Text"
     />
</svg>

<svg xmlns="http://www.w3.org/2000/svg" viewBox="0 0 16 16">
  <defs id="defs3051">
    <style type="text/css" id="current-color-scheme">
      .ColorScheme-Text {
        color:#eff0f1;
      }
      </style>
  </defs>
 <path style="fill:currentColor;fill-opacity:1;stroke:none" 
       d="M 2 2 L 2 14 L 14 14 L 14 2 L 12 2 L 12 4 L 10 4 L 10 2 L 6 2 L 6 4 L 4 4 L 4 2 L 2 2 z M 3 5 L 13 5 L 13 13 L 3 13 L 3 5 z M 7 6.5 A 2.5 2.5 0 0 0 4.5 9 A 2.5 2.5 0 0 0 7 11.5 A 2.5 2.5 0 0 0 8.0019531 11.289062 A 2.5 2.5 0 0 0 9 11.5 A 2.5 2.5 0 0 0 11.5 9 A 2.5 2.5 0 0 0 9 6.5 A 2.5 2.5 0 0 0 7.9980469 6.7109375 A 2.5 2.5 0 0 0 7 6.5 z M 7 7.5 A 1.5 1.5 0 0 1 7.0019531 7.5 A 2.5 2.5 0 0 0 6.5 9 A 2.5 2.5 0 0 0 7.0039062 10.5 A 1.5 1.5 0 0 1 7 10.5 A 1.5 1.5 0 0 1 5.5 9 A 1.5 1.5 0 0 1 7 7.5 z M 8.9960938 7.5 A 1.5 1.5 0 0 1 9 7.5 A 1.5 1.5 0 0 1 10.5 9 A 1.5 1.5 0 0 1 9 10.5 A 1.5 1.5 0 0 1 8.9980469 10.5 A 2.5 2.5 0 0 0 9.5 9 A 2.5 2.5 0 0 0 8.9960938 7.5 z M 8 7.8847656 A 1.5 1.5 0 0 1 8.5 9 A 1.5 1.5 0 0 1 8 10.115234 A 1.5 1.5 0 0 1 7.5 9 A 1.5 1.5 0 0 1 8 7.8847656 z "
     class="ColorScheme-Text"
     />
</svg>
